sources/design/Outline/ട_small.svg

<svg:svg xmlns:cc="http://creativecommons.org/ns#" xmlns:dc="http://purl.org/dc/elements/1.1/" xmlns:inkscape="http://www.inkscape.org/namespaces/inkscape" xmlns:rdf="http://www.w3.org/1999/02/22-rdf-syntax-ns#" xmlns:sodipodi="http://sodipodi.sourceforge.net/DTD/sodipodi-0.dtd" xmlns:svg="http://www.w3.org/2000/svg" xml:space="preserve" width="1000" height="1000" version="1.1" style="clip-rule:evenodd;fill-rule:evenodd;image-rendering:optimizeQuality;shape-rendering:geometricPrecision;text-rendering:geometricPrecision" viewBox="0 0 1000 1000" id="svg10" sodipodi:docname="ട_small.svg" inkscape:version="1.0.1 (3bc2e813f5, 2020-09-07)"><svg:metadata id="metadata14"><rdf:RDF><cc:Work rdf:about=""><dc:format>image/svg+xml</dc:format><dc:type rdf:resource="http://purl.org/dc/dcmitype/StillImage" /><dc:title /></cc:Work></rdf:RDF></svg:metadata><sodipodi:namedview pagecolor="#ffffff" bordercolor="#666666" borderopacity="1" objecttolerance="10" gridtolerance="10" guidetolerance="10" inkscape:pageopacity="0" inkscape:pageshadow="2" inkscape:window-width="1920" inkscape:window-height="1015" id="namedview12" showgrid="false" inkscape:zoom="0.9588368" inkscape:cx="206.94957" inkscape:cy="750.69429" inkscape:window-x="1920" inkscape:window-y="0" inkscape:window-maximized="1" inkscape:current-layer="svg10" showguides="true" inkscape:guide-bbox="true" inkscape:document-rotation="0" inkscape:snap-to-guides="true" inkscape:pagecheckerboard="0"><sodipodi:guide position="0,1000" orientation="0,1" id="guide16" inkscape:label="" inkscape:locked="true" inkscape:color="rgb(0,0,255)" /><sodipodi:guide position="1763.3122,2036.1693" orientation="1000,0" id="guide18" /><sodipodi:guide position="0,200" orientation="0,1" id="guide20" inkscape:label="base" inkscape:locked="true" inkscape:color="rgb(0,0,255)" /><inkscape:grid type="xygrid" id="grid24" originx="-473.37552" originy="-489.69235" /><sodipodi:guide position="0,0" orientation="0,1" id="guide34" inkscape:label="bottom" inkscape:locked="true" inkscape:color="rgb(0,0,255)" /><sodipodi:guide position="225.05109,1693.3186" orientation="0,1" id="guide44" inkscape:label="" inkscape:locked="false" inkscape:color="rgb(0,0,255)" /><sodipodi:guide position="0,900" orientation="0,1" id="guide46" inkscape:label="" inkscape:locked="true" inkscape:color="rgb(0,0,255)" /><sodipodi:guide position="510.07136,552.38052" orientation="-1,0" id="guide841" inkscape:label="width" inkscape:locked="false" inkscape:color="rgb(0,0,255)" /><sodipodi:guide position="0,1000" orientation="0,1000" id="guide860" /><sodipodi:guide position="1000,1000" orientation="1000,0" id="guide862" /><sodipodi:guide position="1000,0" orientation="0,-1000" id="guide864" /><sodipodi:guide position="0,0" orientation="-1000,0" id="guide866" /></sodipodi:namedview>
 <svg:defs id="defs4"><inkscape:path-effect effect="spiro" id="path-effect873" is_visible="true" lpeversion="1" /><inkscape:path-effect effect="spiro" id="path-effect859" is_visible="true" lpeversion="1" /><inkscape:path-effect effect="spiro" id="path-effect862" is_visible="true" lpeversion="1" /><inkscape:path-effect effect="spiro" id="path-effect1521" is_visible="true" lpeversion="1" /><inkscape:path-effect effect="spiro" id="path-effect858" is_visible="true" lpeversion="1" /><inkscape:path-effect effect="spiro" id="path-effect854" is_visible="true" lpeversion="1" />
  <svg:style type="text/css" id="style2">
   
    .fil0 {fill:#EF7F1A;fill-rule:nonzero}
   
  </svg:style>
 <inkscape:path-effect effect="spiro" id="path-effect1214" is_visible="true" lpeversion="1" /><inkscape:path-effect effect="spiro" id="path-effect1195" is_visible="true" lpeversion="1" /><inkscape:path-effect effect="spiro" id="path-effect992" is_visible="true" lpeversion="1" /><inkscape:path-effect effect="spiro" id="path-effect287" is_visible="true" lpeversion="1" /><inkscape:path-effect effect="spiro" id="path-effect1032" is_visible="true" lpeversion="1" /><inkscape:path-effect effect="spiro" id="path-effect1218" is_visible="true" lpeversion="1" /><inkscape:path-effect effect="spiro" id="path-effect309" is_visible="true" lpeversion="1" /><inkscape:path-effect effect="spiro" id="path-effect1176" is_visible="true" lpeversion="1" /><inkscape:path-effect effect="spiro" id="path-effect1026" is_visible="true" lpeversion="1" /></svg:defs>
 
<svg:g id="path871"><svg:path style="color:#000000;clip-rule:nonzero;fill:#1a5fb4;fill-rule:nonzero;stroke-linecap:round;stroke-linejoin:round;-inkscape-stroke:none;paint-order:fill stroke markers;shape-rendering:auto" d="M 443.28516,677.30273 C 333.08568,692.19773 224.71927,720.368 121.2168,761.02539 C 75.111571,779.13625 29.978178,799.71221 -13.931641,822.63867 A 30.003,30.003 0.0 0,0 -28.792969,857.8125 L 0.5390625,956.08984 A 30.003,30.003 0.0 0,0 34.525391,977.04883 C 75.179651,969.83791 116.20612,964.71151 157.38477,961.69727 C 216.50881,957.36943 274.65753,958.82285 321.38281,981.65625 C 331.65487,986.67593 339.84982,992.20172 344.98828000000003,997.99023 C 349.78947000000005,1003.3988 352.06592,1009.8968 351.90625000000006,1013.6738 C 351.81725000000006,1015.7785 351.04983000000004,1018.6544 349.4804700000001,1021.4629 C 347.8739000000001,1024.338 345.31673000000006,1027.4415 341.9609400000001,1030.3183999999999 C 335.1669500000001,1036.1426999999999 324.8485000000001,1041.1353 312.2050800000001,1045.7226999999998 C 270.7831200000001,1060.7516999999998 225.85916000000012,1066.8740999999998 181.4902300000001,1064.2206999999999 C 146.27616000000012,1062.1147999999998 110.91865000000011,1054.5270999999998 76.26757800000011,1043.3926 C 62.78855900000011,1039.0612999999998 49.472242000000115,1034.2189999999998 36.359375000000114,1028.8808999999999 A 30.003,30.003 0.0 0,0 -4.939453099999888,1057.5487999999998 L -1.2207030999998878,1184.0370999999998 A 30.003,30.003 0.0 0,0 27.603516000000113,1213.1327999999999 C 64.2740270000001,1214.5551999999998 101.03004000000011,1213.6381 137.5839800000001,1210.3887 C 195.0497400000001,1205.2803999999999 251.1942000000001,1194.5109 306.1679700000001,1182.0957 C 336.1913600000001,1175.3153 367.86392000000006,1167.6958000000002 398.88867000000005,1153.9473 C 430.06938,1140.1297 460.53771000000006,1119.8773 482.76367000000005,1090.1035 C 496.17120000000006,1072.1428999999998 506.32893000000007,1050.8831 510.1816400000001,1027.3145 C 514.0637200000001,1003.5662 511.2957200000001,978.2877699999999 499.76758000000007,955.54883 C 489.11307000000005,934.53311 472.73282000000006,918.95238 455.58008000000007,907.3671899999999 C 438.56201000000004,895.8729599999999 420.94076000000007,888.2715999999999 404.6445300000001,881.6816399999999 C 378.0578400000001,870.93036 350.8958600000001,861.6687599999999 323.38281000000006,853.6152299999999 C 346.59537000000006,852.0063199999998 369.8505200000001,851.0335899999999 393.11523000000005,850.8593699999999 C 431.21697000000006,850.5740499999999 469.33488000000006,852.2145499999999 507.27148000000005,855.7695299999999 A 30.003,30.003 0.0 0,0 536.5996100000001,811.8906199999999 L 473.83203,693.02344 A 30.003,30.003 0.0 0,0 443.28515999999996,677.30273 L 443.28516,677.30273 M 430.71484000000004,739.86523 L 458.37109000000004,792.23828 C 436.48639000000003,791.1953000000001 414.57564,790.69726 392.66602,790.8613300000001 C 305.36132,791.51511 218.15758,801.7895100000001 133.09179999999998,821.4453100000001 A 30.003,30.003 0.0 0,0 137.69921999999997,880.5996100000001 C 221.44780999999995,886.60616 304.31030999999996,905.8272700000001 382.15038999999996,937.30469 C 397.28979,943.4268400000001 410.91637,949.6031800000001 421.99805,957.08789 C 432.94505,964.48164 441.57345,973.4514800000001 446.25194999999997,982.67969 C 451.24379,992.5259400000001 452.98051999999996,1005.3280000000001 450.96874999999994,1017.6348 C 448.92760999999996,1030.1212 443.12855999999994,1042.8975 434.68163999999996,1054.2129 C 420.53331,1073.1659 398.99145999999996,1088.274 374.58007999999995,1099.0918 C 350.01273999999995,1109.9787 322.2401699999999,1116.9557 292.95116999999993,1123.5702999999999 C 239.28279999999992,1135.6906999999999 185.74646999999993,1145.8713999999998 132.27147999999994,1150.6249999999998 C 107.55367999999994,1152.8221999999998 82.73257599999994,1153.8396999999998 57.91601599999994,1153.7421999999997 L 56.333983999999944,1099.9745999999998 C 56.86298999999995,1100.1461999999997 57.38264199999995,1100.3454999999997 57.912108999999944,1100.5155999999997 C 96.30471799999995,1112.8523999999998 136.53701999999993,1121.6391999999996 177.90819999999997,1124.1132999999998 C 230.14579999999995,1127.2371999999998 283.11397,1120.1045999999997 332.66796999999997,1102.1249999999998 C 347.91549,1096.5927999999997 365.28009,1089.3574999999998 381.01171999999997,1075.8710999999998 C 388.91873,1069.0924999999997 396.22745999999995,1060.8076999999998 401.85742,1050.7323999999999 C 407.52459,1040.5905999999998 411.31592,1028.9242 411.85352,1016.2069999999999 C 412.83685,992.9457999999998 403.02399,972.9882299999999 389.85937,958.1581999999999 C 377.03203,943.7081099999998 361.76898,934.6101999999998 347.72656,927.7480499999998 C 284.83639,897.0152899999998 215.55988,897.2785199999998 153.00586,901.8574199999998 C 118.68777000000001,904.3694799999998 84.48216700000002,908.3364399999998 50.482422000000014,913.6289099999998 L 35.876953,864.69336 C 70.925796,847.21395 106.70092,831.19055 143.1543,816.87109 C 235.70335,780.51638 332.39591,754.733 430.71484,739.86523 L 430.71484000000004,739.86523" id="path8126" /></svg:g></svg:svg>

<svg:svg xmlns:cc="http://creativecommons.org/ns#" xmlns:dc="http://purl.org/dc/elements/1.1/" xmlns:inkscape="http://www.inkscape.org/namespaces/inkscape" xmlns:rdf="http://www.w3.org/1999/02/22-rdf-syntax-ns#" xmlns:sodipodi="http://sodipodi.sourceforge.net/DTD/sodipodi-0.dtd" xmlns:svg="http://www.w3.org/2000/svg" xml:space="preserve" width="1000" height="1000" version="1.1" style="clip-rule:evenodd;fill-rule:evenodd;image-rendering:optimizeQuality;shape-rendering:geometricPrecision;text-rendering:geometricPrecision" viewBox="0 0 1000 1000" id="svg10" sodipodi:docname="ട_small.svg" inkscape:version="1.0.1 (3bc2e813f5, 2020-09-07)"><svg:metadata id="metadata14"><rdf:RDF><cc:Work rdf:about=""><dc:format>image/svg+xml</dc:format><dc:type rdf:resource="http://purl.org/dc/dcmitype/StillImage" /><dc:title /></cc:Work></rdf:RDF></svg:metadata><sodipodi:namedview pagecolor="#ffffff" bordercolor="#666666" borderopacity="1" objecttolerance="10" gridtolerance="10" guidetolerance="10" inkscape:pageopacity="0" inkscape:pageshadow="2" inkscape:window-width="1920" inkscape:window-height="1015" id="namedview12" showgrid="false" inkscape:zoom="0.9588368" inkscape:cx="206.94957" inkscape:cy="750.69429" inkscape:window-x="1920" inkscape:window-y="0" inkscape:window-maximized="1" inkscape:current-layer="svg10" showguides="true" inkscape:guide-bbox="true" inkscape:document-rotation="0" inkscape:snap-to-guides="true" inkscape:pagecheckerboard="0"><sodipodi:guide position="0,1000" orientation="0,1" id="guide16" inkscape:label="" inkscape:locked="true" inkscape:color="rgb(0,0,255)" /><sodipodi:guide position="1763.3122,2036.1693" orientation="1000,0" id="guide18" /><sodipodi:guide position="0,200" orientation="0,1" id="guide20" inkscape:label="base" inkscape:locked="true" inkscape:color="rgb(0,0,255)" /><inkscape:grid type="xygrid" id="grid24" originx="-473.37552" originy="-489.69235" /><sodipodi:guide position="0,0" orientation="0,1" id="guide34" inkscape:label="bottom" inkscape:locked="true" inkscape:color="rgb(0,0,255)" /><sodipodi:guide position="225.05109,1693.3186" orientation="0,1" id="guide44" inkscape:label="" inkscape:locked="false" inkscape:color="rgb(0,0,255)" /><sodipodi:guide position="0,900" orientation="0,1" id="guide46" inkscape:label="" inkscape:locked="true" inkscape:color="rgb(0,0,255)" /><sodipodi:guide position="510.07136,552.38052" orientation="-1,0" id="guide841" inkscape:label="width" inkscape:locked="false" inkscape:color="rgb(0,0,255)" /><sodipodi:guide position="0,1000" orientation="0,1000" id="guide860" /><sodipodi:guide position="1000,1000" orientation="1000,0" id="guide862" /><sodipodi:guide position="1000,0" orientation="0,-1000" id="guide864" /><sodipodi:guide position="0,0" orientation="-1000,0" id="guide866" /></sodipodi:namedview>
 <svg:defs id="defs4"><inkscape:path-effect effect="spiro" id="path-effect873" is_visible="true" lpeversion="1" /><inkscape:path-effect effect="spiro" id="path-effect859" is_visible="true" lpeversion="1" /><inkscape:path-effect effect="spiro" id="path-effect862" is_visible="true" lpeversion="1" /><inkscape:path-effect effect="spiro" id="path-effect1521" is_visible="true" lpeversion="1" /><inkscape:path-effect effect="spiro" id="path-effect858" is_visible="true" lpeversion="1" /><inkscape:path-effect effect="spiro" id="path-effect854" is_visible="true" lpeversion="1" />
  <svg:style type="text/css" id="style2">
   
    .fil0 {fill:#EF7F1A;fill-rule:nonzero}
   
  </svg:style>
 <inkscape:path-effect effect="spiro" id="path-effect1214" is_visible="true" lpeversion="1" /><inkscape:path-effect effect="spiro" id="path-effect1195" is_visible="true" lpeversion="1" /><inkscape:path-effect effect="spiro" id="path-effect992" is_visible="true" lpeversion="1" /><inkscape:path-effect effect="spiro" id="path-effect287" is_visible="true" lpeversion="1" /><inkscape:path-effect effect="spiro" id="path-effect1032" is_visible="true" lpeversion="1" /><inkscape:path-effect effect="spiro" id="path-effect1218" is_visible="true" lpeversion="1" /><inkscape:path-effect effect="spiro" id="path-effect309" is_visible="true" lpeversion="1" /><inkscape:path-effect effect="spiro" id="path-effect1176" is_visible="true" lpeversion="1" /><inkscape:path-effect effect="spiro" id="path-effect1026" is_visible="true" lpeversion="1" /></svg:defs>
 
<svg:g id="path871"><svg:path style="color:#000000;clip-rule:nonzero;fill:#1a5fb4;fill-rule:nonzero;stroke-linecap:round;stroke-linejoin:round;-inkscape-stroke:none;shape-rendering:auto" d="M 443.28516,677.30273 C 333.08568,692.19773 224.71927,720.368 121.2168,761.02539 75.111571,779.13625 29.978178,799.71221 -13.931641,822.63867 a 30.003,30.003 0 0 0 -14.861328,35.17383 l 29.3320315,98.27734 a 30.003,30.003 0 0 0 33.9863285,20.95899 c 40.65426,-7.21092 81.680729,-12.33732 122.859379,-15.35156 59.12404,-4.32784 117.27276,-2.87442 163.99804,19.95898 10.27206,5.01968 18.46701,10.54547 23.60547,16.33398 4.80119,5.40857 7.07764,11.90657 6.91797,15.68357 -0.089,2.1047 -0.85642,4.9806 -2.42578,7.7891 -1.60657,2.8751 -4.16374,5.9786 -7.51953,8.8555 -6.79399,5.8243 -17.11244,10.8169 -29.75586,15.4043 -41.42196,15.029 -86.34592,21.1514 -130.71485,18.498 -35.21407,-2.1059 -70.57158,-9.6936 -105.222652,-20.8281 -13.479019,-4.3313 -26.795336,-9.1736 -39.908203,-14.5117 a 30.003,30.003 0 0 0 -41.2988281,28.6679 l 3.71875,126.4883 a 30.003,30.003 0 0 0 28.8242191,29.0957 c 36.670511,1.4224 73.426524,0.5053 109.980464,-2.7441 57.46576,-5.1083 113.61022,-15.8778 168.58399,-28.293 30.02339,-6.7804 61.69595,-14.3999 92.7207,-28.1484 31.18071,-13.8176 61.64904,-34.07 83.875,-63.8438 13.40753,-17.9606 23.56526,-39.2204 27.41797,-62.789 3.88208,-23.7483 1.11408,-49.02673 -10.41406,-71.76567 -10.65451,-21.01572 -27.03476,-36.59645 -44.1875,-48.18164 -17.01807,-11.49423 -34.63932,-19.09559 -50.93555,-25.68555 -26.58669,-10.75128 -53.74867,-20.01288 -81.26172,-28.06641 23.21256,-1.60891 46.46771,-2.58164 69.73242,-2.75586 38.10174,-0.28532 76.21965,1.35518 114.15625,4.91016 a 30.003,30.003 0 0 0 29.32813,-43.87891 L 473.83203,693.02344 a 30.003,30.003 0 0 0 -30.54687,-15.72071 z m -12.57032,62.5625 27.65625,52.37305 c -21.8847,-1.04298 -43.79545,-1.54102 -65.70507,-1.37695 -87.3047,0.65378 -174.50844,10.92818 -259.57422,30.58398 a 30.003,30.003 0 0 0 4.60742,59.1543 c 83.74859,6.00655 166.61109,25.22766 244.45117,56.70508 15.1394,6.12215 28.76598,12.29849 39.84766,19.7832 10.947,7.39375 19.5754,16.36359 24.2539,25.5918 4.99184,9.84625 6.72857,22.64831 4.7168,34.95511 -2.04114,12.4864 -7.84019,25.2627 -16.28711,36.5781 -14.14833,18.953 -35.69018,34.0611 -60.10156,44.8789 -24.56734,10.8869 -52.33991,17.8639 -81.62891,24.4785 -53.66837,12.1204 -107.2047,22.3011 -160.67969,27.0547 -24.7178,2.1972 -49.538904,3.2147 -74.355464,3.1172 l -1.582032,-53.7676 c 0.529006,0.1716 1.048658,0.3709 1.578125,0.541 38.392609,12.3368 78.624911,21.1236 119.996091,23.5977 52.2376,3.1239 105.20577,-4.0087 154.75977,-21.9883 15.24752,-5.5322 32.61212,-12.7675 48.34375,-26.2539 7.90701,-6.7786 15.21574,-15.0634 20.8457,-25.1387 5.66717,-10.1418 9.4585,-21.8082 9.9961,-34.5254 0.98333,-23.2612 -8.82953,-43.21877 -21.99415,-58.0488 -12.82734,-14.45009 -28.09039,-23.548 -42.13281,-30.41015 -62.89017,-30.73276 -132.16668,-30.46953 -194.7207,-25.89063 -34.31809,2.51206 -68.523693,6.47902 -102.523438,11.77149 L 35.876953,864.69336 C 70.925796,847.21395 106.70092,831.19055 143.1543,816.87109 235.70335,780.51638 332.39591,754.733 430.71484,739.86523 Z" id="path8114" /></svg:g></svg:svg>
